X: 27693
T: Morgiana
R: jig
M: 6/8
K: Dmajor
A|(AF)A {d/e/}f2e|dcB A2B|(AF)A (dA)f|gfe edB|
AFA f2e|dcB A2B|AFA dAf|gec d2||
e|efe dcB|AAA g2A|fAA dAA|fAA e3|
efe dcB|AAA g2A|fAA dAA|edc BAG||
FDE F2A|FDE F2A|G2B F2A|(E3 E)AG|
FDE F2A|FDE F2A|B2d c2e|(d3 d2)||

